public/images/AT&T-logo.svg

<svg xmlns="http://www.w3.org/2000/svg" viewBox="96.1 99.4 56.4 56.4"><title xml:lang="en">AT&amp;T</title><radialGradient id="a" cx="-373.844" cy="526.149" r=".149" fx="-373.794" fy="526.125" gradientTransform="matrix(226.9922 0 0 -200.267 84983.867 105498.46)" gradientUnits="userSpaceOnUse"><stop offset="0" stop-color="#32A5DD"/><stop offset=".7" stop-color="#32A5DD"/><stop offset="1" stop-color="#2277A0"/></radialGradient><path fill="url(#a)" d="M152 123.2c0-.5-.1-1.4-.3-2.3-.1-.6-.3-1.2-.5-1.9.3 1.1.3 2 .3 2.3 0 1.4-1.7 10-18.8 11.5-1.5.1-12.3.3-21.8-2.1-6.3-1.6-12.6-4.7-13.8-8.9-.2-.7-.1-1.3 0-1.9-.5 1.7-.8 3.5-1 5.3.1 4.5 4 9.7 11.1 12 8.2 2.6 13.2 2.7 25 0 20-4.4 19.8-13.1 19.8-14zM108 147c-4.7-1.9-7.9-5.1-9.2-7.5 1.2 2.5 2.8 4.9 4.6 6.9 6.1 5.7 15.4 6.4 19.7 6.4 18.2 0 24.7-9.6 26.1-12.1.3-.5.5-1 .8-1.6-2.9 6-17.8 18-42 7.9zm19.7-3.7c-5.5.2-15.2-1.7-21.3-4.2-4.9-2-9.8-5.9-10.3-9.6.1.9.2 1.8.3 2.6 3 16.4 23.7 15.5 27.3 15.1 26-2.9 28.2-14 28.6-16.2 0-.5.1-.9.1-1.4-.4 3-4.8 13-24.7 13.7m-23.5-33.2c0 2.6 3.7 6.7 14.6 6.7 6.4 0 11.6-1.2 15.5-2.5 6.3-2.1 9.4-4.6 9.3-6.5 0-.3-.1-.8-.5-1.2-1.4-1.3-2.9-2.4-4.5-3.3 1.1.6 1.7 1.4 1.7 2.2 0 2.8-6.9 5.4-16 5.7-9 .2-16.5-2-16.7-4.8-.1-.9.6-1.9 1.9-2.7-1 .6-1.9 1.3-2.8 2-2.5 1.9-2.5 4.1-2.5 4.4zm-5.8 8c0-1.2.2-2.1.5-2.8.6-1.1 1.2-2.2 1.9-3.2-.2.3-.3.6-.3 1 0 2.6 6.4 6 15.2 7.1 3 .4 10.8 1.5 16.9 1 12.3-1 15-5.3 15-8.1 0-.8-.4-1.9-.8-2.5.6.7 1.1 1.5 1.6 2.3.9 1.6.8 2.3.8 2.6 0 5.7-10.6 9.4-17.7 11.4-18.2 4.9-33.1-1.9-33.1-8.8z"/><radialGradient id="b" cx="-373.827" cy="526.115" r=".149" fx="-373.777" fy="526.09" gradientTransform="matrix(225.1525 0 0 -195.31 84292.125 102883.625)" gradientUnits="userSpaceOnUse"><stop offset="0" stop-color="#0096D6"/><stop offset=".7" stop-color="#0096D6"/><stop offset="1" stop-color="#006C9B"/></radialGradient><path fill="url(#b)" d="M96.4 130.3c-.1-.3-.1-.5-.2-.8 0 .7.1 1.4.2 2.1-.1-.5-.1-.9 0-1.3zm.7-10.3c-.2.6-.3 1.3-.5 1.9.1-.3.2-.5.3-.8.1-.4.2-.8.2-1.1zm1.7 19.6c.7 1.4 1.4 2.7 2.3 4-.5-.7-.8-1.5-1.2-2.3-.5-.6-.8-1.2-1.1-1.7zm3.5-23.9c-.4-.3-.7-.5-.9-.8-1.2.8-2.2 1.7-3 2.7v.5c0 .3 0 .6.1.9.9-1 2.2-2.2 3.8-3.3zm44.7-.2c.8.4 1.4.8 2.1 1.3.1-.4.2-.9.2-1.3 0-.3.1-.9-.8-2.5-.5-.8-1-1.6-1.6-2.3.4.6.8 1.7.8 2.5-.1.6-.3 1.4-.7 2.3zm-46.3-3.4c-.1.1-.2.2-.2.4l.1-.2c.1-.1.1-.2.1-.2zm39.5-7c1.1.5 2.2 1 3.1 1.7l-.2-.2c-.9-.8-1.9-1.6-2.9-2.3-.3-.2-.5-.3-.8-.4.5.3.7.7.8 1.2zm5.2 39.4l-.3 1.2c2.3-2.1 3.6-4 4.1-4.9l.1-.1v-.2c-.9 1.2-2.2 2.7-3.9 4zm-34.1 0c0-1.2.3-2.4.8-3.5l-2.1-.6c-.5 1.2-.8 2.4-.8 3.7 0 .6.1 1.2.2 1.7l2.1.6c-.1-.6-.2-1.2-.2-1.9zm40.4-23.6c-.1-.3-.1-.5-.2-.8 0-.1-.1-.2-.1-.3.1.7.1 1.2.1 1.4 0 .5-.2 1.7-1 3.2.4.5.7.9 1 1.4.5-1.4.5-2.4.5-2.7 0-.4-.1-1.3-.3-2.2zm0 11c-.3.6-.6 1.2-1.1 1.9.1.4.2.8.2 1.2.5-.8.8-1.5 1-2.2 0-.3 0-.6-.1-.9zm-3 6c-.2-.4-.3-.8-.5-1.2-.9.8-2 1.6-3.3 2.4.2.5.4 1 .5 1.6 1.3-1 2.4-1.9 3.3-2.8zm-42.4-24.3c3-1.4 6.6-2.4 10.9-2.9-1.5-.2-2.8-.4-4-.8-2.8.8-5.5 1.7-7.8 2.8.2.3.5.6.9.9zm-7.2 23.5c0-.8.1-1.6.3-2.4-.4-.4-.8-.8-1.1-1.2-.3 1.1-.3 2.3-.2 3.4.4.7.8 1.4 1.2 2-.1-.5-.2-1.2-.2-1.8zm-1-13.3c-.7 1-1.3 2.1-1.6 3.3.1.4.2.7.3 1.1.4-1.2 1.1-2.4 2.1-3.5-.3-.3-.6-.6-.8-.9m9.7-16.8c-1.3.5-2.4 1.1-3.4 1.6-.2.5-.2.9-.2 1.2 1.2-.6 2.7-1.3 4.4-1.9-.3-.3-.6-.6-.8-.9zm35.7 1.6c-1.3-.5-2.8-.8-4.6-1-2 1.5-6.1 2.8-11.1 3.3 3.2.3 7.1.9 10.7 1.7 2.8-1.4 4.5-2.8 5-4zm-5.1 33.1c.3.7.4 1.4.5 2.1.8-.3 1.6-.6 2.3-1-.1-.7-.3-1.3-.5-1.9-.7.3-1.4.6-2.3.8zm-2.5 9.3c1.3-.5 2.5-1 3.6-1.5.4-.6.8-1.2 1.1-1.9-.9.5-1.9.9-2.9 1.3-.5.7-1.1 1.4-1.8 2.1zm-32.8-6.8c.2 1 .6 2 1.1 3 1 .8 2.1 1.5 3.2 2.2-.8-1.1-1.4-2.3-1.8-3.5-.9-.5-1.8-1.1-2.5-1.7zm43.7-15.8c.7.6 1.2 1.1 1.7 1.7.7-.7 1.3-1.3 1.7-1.9-.3-.6-.7-1.1-1.2-1.7-.5.6-1.3 1.2-2.2 1.9zm-46.9 4.5c.7-1.8 1.8-3.5 3.4-5-.5-.3-1-.5-1.5-.8-1.3 1.4-2.3 3-3 4.6.4.4.7.8 1.1 1.2zm51.4-13.5c0-.1-.1-.2-.1-.3.1.1.1.2.1.3zm-38.8 29.3c-.8-.2-1.6-.5-2.4-.8.6 1.4 1.6 2.6 2.9 3.7 1 .3 2.1.5 3.1.7-1.6-1-2.8-2.2-3.6-3.6zm7.9-27.9c-2-.2-3.7-.4-4.7-.6-.7-.1-1.4-.2-2-.3-3.8 1.2-7.1 3-9.7 5.2.5.3 1.1.6 1.7.8 3.7-2.7 8.9-4.6 14.7-5.1m-15.3 22c0-1.3.2-2.7.7-3.9-.8-.3-1.5-.7-2.3-1.1-.5 1.3-.7 2.7-.7 4v.8c.7.6 1.5 1.1 2.4 1.5-.1-.5-.1-.9-.1-1.3zm7.9-11.6c-.7-.1-1.4-.3-2.1-.5-.4-.1-.9-.2-1.3-.4-2.3 1.6-4.1 3.5-5.3 5.6.7.4 1.5.7 2.3 1 .7-1.2 1.6-2.3 2.7-3.3 1.1-.9 2.3-1.7 3.7-2.4zm-7.1-13.5c-2.2 1.1-4.4 2.4-6.1 4.1.3.3.6.7.9 1 1.9-1.7 4.3-3.2 6.9-4.4-.5-.2-1.1-.4-1.7-.7zm36.9 12.8c-1.3.5-2.7 1-4.3 1.3 1.2.7 2.3 1.5 3.2 2.4 1.3-.6 2.5-1.2 3.5-1.8-.7-.6-1.5-1.2-2.4-1.9zm-3.3-6.4c1.5-.6 2.9-1.3 4.2-2-1.4-.7-2.9-1.4-4.7-1.9-1.8.4-3.9.8-6.4 1-.7.1-1.5.1-2.3.1 1.7.3 3.4.8 5 1.3 1.5.5 2.9 1 4.2 1.5zm6.2-3.3c1.4-1.1 2.5-2.2 3.1-3.5-.7-.4-1.5-.8-2.3-1.2-.8 1.1-2.2 2.1-4.3 3 1.2.6 2.4 1.1 3.5 1.7zm-16 12.1c-1.8 0-4.2-.1-7-.3-4.9.6-9 2.7-11.4 5.8.8.2 1.6.3 2.3.5 2.5-2.7 6.7-4.5 11.5-4.5 3.5 0 6.7 1 9.1 2.5.9-.2 1.8-.5 2.7-.7-1.9-1.6-4.4-2.8-7.2-3.3zm-.5-17.2c1.9-.4 3.7-.9 5.2-1.4.8-.3 1.6-.6 2.3-.9-2.2-.4-4.1-.7-5.4-.8-4.9-.5-12.2.9-14.1 1.3-.6.1-3.3.7-6.5 1.8.8.2 1.6.4 2.5.6 3-.8 6-1.3 8.9-1.3 1.9.1 4.4.3 7.1.7zm2.3 11.1c.5-.1 1-.3 1.5-.4-2.2-.5-4.5-.7-6.9-.7-4.6 0-8.8.9-12.4 2.5 5.1.6 11.2.4 17.8-1.4z"/><radialGradient id="c" cx="-373.848" cy="526.305" r=".149" fx="-373.798" fy="526.28" gradientTransform="matrix(227.537 0 0 -227.5688 85188.5 119898.133)" gradientUnits="userSpaceOnUse"><stop offset="0" stop-color="#FFF"/><stop offset=".55" stop-color="#FFF"/><stop offset="1" stop-color="#B1B4B6"/></radialGradient><path fill="url(#c)" d="M97.2 119.9c.4-1.6 1-3.2 1.8-4.6-.3.8-.5 1.6-.5 2.8 0 6.9 14.9 13.7 33.1 8.7 7.1-1.9 17.7-5.7 17.7-11.4 0-.3.1-.9-.8-2.6 1.2 1.9 2.1 4 2.8 6.2.3 1.1.3 2 .3 2.3 0 1.4-1.7 10-18.8 11.5-1.5.1-12.3.3-21.8-2.1-6.3-1.6-12.6-4.7-13.8-8.9-.3-.7-.2-1.3 0-1.9zm26.5 27.3c-3.6.4-24.2 1.3-27.3-15.1.4 2.6 1.2 5.1 2.3 7.4 1.3 2.3 4.5 5.6 9.2 7.5 24.3 10 39.2-1.9 42.1-7.8 1.2-2.6 1.9-5.3 2.3-8.2-.3 2.2-2.6 13.3-28.6 16.2zm-.6 5.7c-4.3 0-13.6-.7-19.7-6.4 5.2 5.7 12.6 9.3 20.9 9.3 10.8 0 20.2-6.1 24.9-15-1.4 2.5-7.9 12.1-26.1 12.1zm-16.6-13.8c6.1 2.5 15.8 4.4 21.3 4.2 19.8-.7 24.2-10.7 24.7-13.7 0-.7.1-1.4.1-2.1 0-2.3-.3-4.5-.8-6.7.2.9.3 1.8.3 2.3 0 1 .2 9.6-19.6 14-11.9 2.6-16.9 2.6-25 0-7.1-2.3-11-7.5-11.1-12-.1.8-.1 1.6-.1 2.3 0 .6 0 1.3.1 1.9.3 3.9 5.1 7.8 10.1 9.8zm9.2-18.9c3 .4 10.8 1.5 16.9 1 12.3-1 15-5.3 15-8.1 0-.8-.4-1.9-.8-2.5-1.1-1.4-2.3-2.8-3.7-4 .3.4.5.9.5 1.2.1 1.9-3 4.5-9.3 6.5-3.9 1.3-9.1 2.5-15.5 2.5-10.8 0-14.6-4.1-14.6-6.7 0-.3-.1-2.5 2.5-4.6-2.3 1.8-4.3 4-5.9 6.5-.2.3-.3.6-.3 1 0 2.7 6.4 6.1 15.2 7.2zm-8.1-14c.2 2.8 7.7 5 16.7 4.8 9-.2 16-2.8 16-5.7 0-.8-.6-1.5-1.7-2.2-4.2-2.5-9.1-3.9-14.3-3.9-5.4 0-10.5 1.5-14.8 4.2-1.3 1-2 1.9-1.9 2.8z"/></svg>

<svg version="1.1" id="Layer_1" xmlns="http://www.w3.org/2000/svg" xmlns:xlink="http://www.w3.org/1999/xlink" x="0px" y="0px"
	 viewBox="96.1 99.4 56.4 56.4" enable-background="new 96.1 99.4 56.4 56.4" xml:space="preserve">
<title  xml:lang="en">AT&amp;T</title>
<radialGradient id="backclear_1_" cx="-373.8435" cy="526.1494" r="0.1488" fx="-373.7939" fy="526.1246" gradientTransform="matrix(226.9922 0 0 -200.2671 84983.8672 105498.4609)" gradientUnits="userSpaceOnUse">
	<stop  offset="0" style="stop-color:#32A5DD"/>
	<stop  offset="0.7" style="stop-color:#32A5DD"/>
	<stop  offset="1" style="stop-color:#2277A0"/>
</radialGradient>
<path id="backclear" fill="url(#backclear_1_)" d="M152,123.2c0-0.5-0.1-1.4-0.3-2.3c-0.1-0.6-0.3-1.2-0.5-1.9
	c0.3,1.1,0.3,2,0.3,2.3c0,1.4-1.7,10-18.8,11.5c-1.5,0.1-12.3,0.3-21.8-2.1c-6.3-1.6-12.6-4.7-13.8-8.9c-0.2-0.7-0.1-1.3,0-1.9
	c-0.5,1.7-0.8,3.5-1,5.3c0.1,4.5,4,9.7,11.1,12c8.2,2.6,13.2,2.7,25,0C152.2,132.8,152,124.1,152,123.2z M108,147
	c-4.7-1.9-7.9-5.1-9.2-7.5c1.2,2.5,2.8,4.9,4.6,6.9c6.1,5.7,15.4,6.4,19.7,6.4c18.2,0,24.7-9.6,26.1-12.1c0.3-0.5,0.5-1,0.8-1.6
	C147.1,145.1,132.2,157.1,108,147z M127.7,143.3c-5.5,0.2-15.2-1.7-21.3-4.2c-4.9-2-9.8-5.9-10.3-9.6c0.1,0.9,0.2,1.8,0.3,2.6
	c3,16.4,23.7,15.5,27.3,15.1c26-2.9,28.2-14,28.6-16.2c0-0.5,0.1-0.9,0.1-1.4C152,132.6,147.6,142.6,127.7,143.3 M104.2,110.1
	c0,2.6,3.7,6.7,14.6,6.7c6.4,0,11.6-1.2,15.5-2.5c6.3-2.1,9.4-4.6,9.3-6.5c0-0.3-0.1-0.8-0.5-1.2c-1.4-1.3-2.9-2.4-4.5-3.3
	c1.1,0.6,1.7,1.4,1.7,2.2c0,2.8-6.9,5.4-16,5.7c-9,0.2-16.5-2-16.7-4.8c-0.1-0.9,0.6-1.9,1.9-2.7c-1,0.6-1.9,1.3-2.8,2
	C104.2,107.6,104.2,109.8,104.2,110.1z M98.4,118.1c0-1.2,0.2-2.1,0.5-2.8c0.6-1.1,1.2-2.2,1.9-3.2c-0.2,0.3-0.3,0.6-0.3,1
	c0,2.6,6.4,6,15.2,7.1c3,0.4,10.8,1.5,16.9,1c12.3-1,15-5.3,15-8.1c0-0.8-0.4-1.9-0.8-2.5c0.6,0.7,1.1,1.5,1.6,2.3
	c0.9,1.6,0.8,2.3,0.8,2.6c0,5.7-10.6,9.4-17.7,11.4C113.3,131.8,98.4,125,98.4,118.1z"/>
<radialGradient id="backstripes_1_" cx="-373.8269" cy="526.1151" r="0.1488" fx="-373.7773" fy="526.0903" gradientTransform="matrix(225.1525 0 0 -195.3101 84292.125 102883.625)" gradientUnits="userSpaceOnUse">
	<stop  offset="0" style="stop-color:#0096D6"/>
	<stop  offset="0.7" style="stop-color:#0096D6"/>
	<stop  offset="1" style="stop-color:#006C9B"/>
</radialGradient>
<path id="backstripes" fill="url(#backstripes_1_)" d="M96.4,130.3c-0.1-0.3-0.1-0.5-0.2-0.8c0,0.7,0.1,1.4,0.2,2.1
	C96.3,131.1,96.3,130.7,96.4,130.3z M97.1,120c-0.2,0.6-0.3,1.3-0.5,1.9c0.1-0.3,0.2-0.5,0.3-0.8C97,120.7,97.1,120.3,97.1,120z
	 M98.8,139.6c0.7,1.4,1.4,2.7,2.3,4c-0.5-0.7-0.8-1.5-1.2-2.3C99.4,140.7,99.1,140.1,98.8,139.6z M102.3,115.7
	c-0.4-0.3-0.7-0.5-0.9-0.8c-1.2,0.8-2.2,1.7-3,2.7c0,0.2,0,0.3,0,0.5c0,0.3,0,0.6,0.1,0.9C99.4,118,100.7,116.8,102.3,115.7z
	 M147,115.5c0.8,0.4,1.4,0.8,2.1,1.3c0.1-0.4,0.2-0.9,0.2-1.3c0-0.3,0.1-0.9-0.8-2.5c-0.5-0.8-1-1.6-1.6-2.3
	c0.4,0.6,0.8,1.7,0.8,2.5C147.6,113.8,147.4,114.6,147,115.5L147,115.5z M100.7,112.1c-0.1,0.1-0.2,0.2-0.2,0.4l0.1-0.2
	C100.7,112.2,100.7,112.1,100.7,112.1z M140.2,105.1c1.1,0.5,2.2,1,3.1,1.7l-0.2-0.2c-0.9-0.8-1.9-1.6-2.9-2.3
	c-0.3-0.2-0.5-0.3-0.8-0.4C139.9,104.2,140.1,104.6,140.2,105.1z M145.4,144.5c-0.1,0.4-0.2,0.8-0.3,1.2c2.3-2.1,3.6-4,4.1-4.9
	l0.1-0.1l0-0.2C148.4,141.7,147.1,143.2,145.4,144.5z M111.3,144.5c0-1.2,0.3-2.4,0.8-3.5c-0.7-0.2-1.4-0.4-2.1-0.6
	c-0.5,1.2-0.8,2.4-0.8,3.7c0,0.6,0.1,1.2,0.2,1.7c0.7,0.2,1.4,0.4,2.1,0.6C111.4,145.8,111.3,145.2,111.3,144.5z M151.7,120.9
	c-0.1-0.3-0.1-0.5-0.2-0.8c0-0.1-0.1-0.2-0.1-0.3c0.1,0.7,0.1,1.2,0.1,1.4c0,0.5-0.2,1.7-1,3.2c0.4,0.5,0.7,0.9,1,1.4
	c0.5-1.4,0.5-2.4,0.5-2.7C152,122.7,151.9,121.8,151.7,120.9L151.7,120.9z M151.7,131.9c-0.3,0.6-0.6,1.2-1.1,1.9
	c0.1,0.4,0.2,0.8,0.2,1.2c0.5-0.8,0.8-1.5,1-2.2C151.8,132.5,151.8,132.2,151.7,131.9z M148.7,137.9c-0.2-0.4-0.3-0.8-0.5-1.2
	c-0.9,0.8-2,1.6-3.3,2.4c0.2,0.5,0.4,1,0.5,1.6C146.7,139.7,147.8,138.8,148.7,137.9z M106.3,113.6c3-1.4,6.6-2.4,10.9-2.9
	c-1.5-0.2-2.8-0.4-4-0.8c-2.8,0.8-5.5,1.7-7.8,2.8C105.6,113,105.9,113.3,106.3,113.6z M99.1,137.1c0-0.8,0.1-1.6,0.3-2.4
	c-0.4-0.4-0.8-0.8-1.1-1.2c-0.3,1.1-0.3,2.3-0.2,3.4c0.4,0.7,0.8,1.4,1.2,2C99.2,138.4,99.1,137.7,99.1,137.1z M98.1,123.8
	c-0.7,1-1.3,2.1-1.6,3.3c0.1,0.4,0.2,0.7,0.3,1.1c0.4-1.2,1.1-2.4,2.1-3.5C98.6,124.4,98.3,124.1,98.1,123.8 M107.8,107
	c-1.3,0.5-2.4,1.1-3.4,1.6c-0.2,0.5-0.2,0.9-0.2,1.2c1.2-0.6,2.7-1.3,4.4-1.9C108.3,107.6,108,107.3,107.8,107z M143.5,108.6
	c-1.3-0.5-2.8-0.8-4.6-1c-2,1.5-6.1,2.8-11.1,3.3c3.2,0.3,7.1,0.9,10.7,1.7C141.3,111.2,143,109.8,143.5,108.6z M138.4,141.7
	c0.3,0.7,0.4,1.4,0.5,2.1c0.8-0.3,1.6-0.6,2.3-1c-0.1-0.7-0.3-1.3-0.5-1.9C140,141.2,139.3,141.5,138.4,141.7z M135.9,151
	c1.3-0.5,2.5-1,3.6-1.5c0.4-0.6,0.8-1.2,1.1-1.9c-0.9,0.5-1.9,0.9-2.9,1.3C137.2,149.6,136.6,150.3,135.9,151z M103.1,144.2
	c0.2,1,0.6,2,1.1,3c1,0.8,2.1,1.5,3.2,2.2c-0.8-1.1-1.4-2.3-1.8-3.5C104.7,145.4,103.8,144.8,103.1,144.2z M146.8,128.4
	c0.7,0.6,1.2,1.1,1.7,1.7c0.7-0.7,1.3-1.3,1.7-1.9c-0.3-0.6-0.7-1.1-1.2-1.7C148.5,127.1,147.7,127.7,146.8,128.4L146.8,128.4z
	 M99.9,132.9c0.7-1.8,1.8-3.5,3.4-5c-0.5-0.3-1-0.5-1.5-0.8c-1.3,1.4-2.3,3-3,4.6C99.2,132.1,99.5,132.5,99.9,132.9z M151.3,119.4
	c0-0.1-0.1-0.2-0.1-0.3C151.3,119.2,151.3,119.3,151.3,119.4L151.3,119.4z M112.5,148.7c-0.8-0.2-1.6-0.5-2.4-0.8
	c0.6,1.4,1.6,2.6,2.9,3.7c1,0.3,2.1,0.5,3.1,0.7C114.5,151.3,113.3,150.1,112.5,148.7z M120.4,120.8c-2-0.2-3.7-0.4-4.7-0.6
	c-0.7-0.1-1.4-0.2-2-0.3c-3.8,1.2-7.1,3-9.7,5.2c0.5,0.3,1.1,0.6,1.7,0.8C109.4,123.2,114.6,121.3,120.4,120.8 M105.1,142.8
	c0-1.3,0.2-2.7,0.7-3.9c-0.8-0.3-1.5-0.7-2.3-1.1c-0.5,1.3-0.7,2.7-0.7,4c0,0.3,0,0.6,0,0.8c0.7,0.6,1.5,1.1,2.4,1.5
	C105.1,143.6,105.1,143.2,105.1,142.8L105.1,142.8z M113,131.2c-0.7-0.1-1.4-0.3-2.1-0.5c-0.4-0.1-0.9-0.2-1.3-0.4
	c-2.3,1.6-4.1,3.5-5.3,5.6c0.7,0.4,1.5,0.7,2.3,1c0.7-1.2,1.6-2.3,2.7-3.3C110.4,132.7,111.6,131.9,113,131.2z M105.9,117.7
	c-2.2,1.1-4.4,2.4-6.1,4.1c0.3,0.3,0.6,0.7,0.9,1c1.9-1.7,4.3-3.2,6.9-4.4C107.1,118.2,106.5,118,105.9,117.7z M142.8,130.5
	c-1.3,0.5-2.7,1-4.3,1.3c1.2,0.7,2.3,1.5,3.2,2.4c1.3-0.6,2.5-1.2,3.5-1.8C144.5,131.8,143.7,131.2,142.8,130.5z M139.5,124.1
	c1.5-0.6,2.9-1.3,4.2-2c-1.4-0.7-2.9-1.4-4.7-1.9c-1.8,0.4-3.9,0.8-6.4,1c-0.7,0.1-1.5,0.1-2.3,0.1c1.7,0.3,3.4,0.8,5,1.3
	C136.8,123.1,138.2,123.6,139.5,124.1z M145.7,120.8c1.4-1.1,2.5-2.2,3.1-3.5c-0.7-0.4-1.5-0.8-2.3-1.2c-0.8,1.1-2.2,2.1-4.3,3
	C143.4,119.7,144.6,120.2,145.7,120.8z M129.7,132.9c-1.8,0-4.2-0.1-7-0.3c-4.9,0.6-9,2.7-11.4,5.8c0.8,0.2,1.6,0.3,2.3,0.5
	c2.5-2.7,6.7-4.5,11.5-4.5c3.5,0,6.7,1,9.1,2.5c0.9-0.2,1.8-0.5,2.7-0.7C135,134.6,132.5,133.4,129.7,132.9z M129.2,115.7
	c1.9-0.4,3.7-0.9,5.2-1.4c0.8-0.3,1.6-0.6,2.3-0.9c-2.2-0.4-4.1-0.7-5.4-0.8c-4.9-0.5-12.2,0.9-14.1,1.3c-0.6,0.1-3.3,0.7-6.5,1.8
	c0.8,0.2,1.6,0.4,2.5,0.6c3-0.8,6-1.3,8.9-1.3C124,115.1,126.5,115.3,129.2,115.7z M131.5,126.8c0.5-0.1,1-0.3,1.5-0.4
	c-2.2-0.5-4.5-0.7-6.9-0.7c-4.6,0-8.8,0.9-12.4,2.5C118.8,128.8,124.9,128.6,131.5,126.8z"/>
<radialGradient id="forestripes_1_" cx="-373.8475" cy="526.3047" r="0.1488" fx="-373.7979" fy="526.28" gradientTransform="matrix(227.5371 0 0 -227.5688 85188.5 119898.1328)" gradientUnits="userSpaceOnUse">
	<stop  offset="0" style="stop-color:#FFFFFF"/>
	<stop  offset="0.55" style="stop-color:#FFFFFF"/>
	<stop  offset="1" style="stop-color:#B1B4B6"/>
</radialGradient>
<path id="forestripes" fill="url(#forestripes_1_)" d="M97.2,119.9c0.4-1.6,1-3.2,1.8-4.6c-0.3,0.8-0.5,1.6-0.5,2.8
	c0,6.9,14.9,13.7,33.1,8.7c7.1-1.9,17.7-5.7,17.7-11.4c0-0.3,0.1-0.9-0.8-2.6c1.2,1.9,2.1,4,2.8,6.2c0.3,1.1,0.3,2,0.3,2.3
	c0,1.4-1.7,10-18.8,11.5c-1.5,0.1-12.3,0.3-21.8-2.1c-6.3-1.6-12.6-4.7-13.8-8.9C96.9,121.1,97,120.5,97.2,119.9z M123.7,147.2
	c-3.6,0.4-24.2,1.3-27.3-15.1c0.4,2.6,1.2,5.1,2.3,7.4c1.3,2.3,4.5,5.6,9.2,7.5c24.3,10,39.2-1.9,42.1-7.8c1.2-2.6,1.9-5.3,2.3-8.2
	C152,133.2,149.7,144.3,123.7,147.2z M123.1,152.9c-4.3,0-13.6-0.7-19.7-6.4c5.2,5.7,12.6,9.3,20.9,9.3c10.8,0,20.2-6.1,24.9-15
	C147.8,143.3,141.3,152.9,123.1,152.9z M106.5,139.1c6.1,2.5,15.8,4.4,21.3,4.2c19.8-0.7,24.2-10.7,24.7-13.7c0-0.7,0.1-1.4,0.1-2.1
	c0-2.3-0.3-4.5-0.8-6.7c0.2,0.9,0.3,1.8,0.3,2.3c0,1,0.2,9.6-19.6,14c-11.9,2.6-16.9,2.6-25,0c-7.1-2.3-11-7.5-11.1-12
	c-0.1,0.8-0.1,1.6-0.1,2.3c0,0.6,0,1.3,0.1,1.9C96.7,133.2,101.5,137.1,106.5,139.1z M115.7,120.2c3,0.4,10.8,1.5,16.9,1
	c12.3-1,15-5.3,15-8.1c0-0.8-0.4-1.9-0.8-2.5c-1.1-1.4-2.3-2.8-3.7-4c0.3,0.4,0.5,0.9,0.5,1.2c0.1,1.9-3,4.5-9.3,6.5
	c-3.9,1.3-9.1,2.5-15.5,2.5c-10.8,0-14.6-4.1-14.6-6.7c0-0.3-0.1-2.5,2.5-4.6c-2.3,1.8-4.3,4-5.9,6.5c-0.2,0.3-0.3,0.6-0.3,1
	C100.5,115.7,106.9,119.1,115.7,120.2z M107.6,106.2c0.2,2.8,7.7,5,16.7,4.8c9-0.2,16-2.8,16-5.7c0-0.8-0.6-1.5-1.7-2.2
	c-4.2-2.5-9.1-3.9-14.3-3.9c-5.4,0-10.5,1.5-14.8,4.2C108.2,104.4,107.5,105.3,107.6,106.2z"/>
</svg>
